icons/14x14_ticket_remove_outline.svg

<svg xmlns="http://www.w3.org/2000/svg" width="14" height="14" viewBox="0 0 14 14">
  <path fill-rule="evenodd" d="M6,10.6584439 L6,12.9987182 C5.68221462,12.9839677 5.36782449,12.8546955 5.12413605,12.6110071 L1.38913605,8.87600708 C0.873136046,8.36000708 0.870136046,7.52700708 1.38113605,7.01600708 L7.10513605,1.29300708 C7.29313605,1.10400708 7.55013605,0.999007078 7.81613605,1.00000708 L11.987136,1.01800708 C12.536136,1.02000708 12.980136,1.46400708 12.983136,2.01300708 L12.9993861,6 L10.9984614,6 L10.9871981,3.01371038 L8.22473007,3.00178872 L3.28360582,7.94204973 L6,10.6584439 Z M12.4142136,11 L13.8284271,12.4142136 L12.4142136,13.8284271 L11,12.4142136 L9.58578644,13.8284271 L8.17157288,12.4142136 L9.58578644,11 L8.17157288,9.58578644 L9.58578644,8.17157288 L11,9.58578644 L12.4142136,8.17157288 L13.8284271,9.58578644 L12.4142136,11 Z"/>
</svg>

<svg width="14" height="14" fill="none" xmlns="http://www.w3.org/2000/svg"><path fill-rule="evenodd" clip-rule="evenodd" d="M6 10.658v2.34a1.322 1.322 0 0 1-.876-.387L1.39 8.876a1.315 1.315 0 0 1-.008-1.86l5.724-5.723A.998.998 0 0 1 7.816 1l4.171.018a1 1 0 0 1 .996.995L13 6h-2l-.012-2.986-2.762-.012-4.941 4.94L6 10.658Zm6.414.342 1.414 1.414-1.414 1.414L11 12.414l-1.414 1.414-1.414-1.414L9.586 11 8.172 9.586l1.414-1.414L11 9.586l1.414-1.414 1.414 1.414L12.414 11Z" fill="#000"/></svg>
